Newaita-dark/.DP/22/teamviewer-indicator-busy.svg

<svg xmlns="http://www.w3.org/2000/svg" xmlns:xlink="http://www.w3.org/1999/xlink" width="22px" height="22px" viewBox="0 0 22 22" version="1.1">
<g id="surface1">
<path style=" stroke:none;fill-rule:nonzero;fill:rgb(93.333334%,93.333334%,93.333334%);fill-opacity:1;" d="M 10.914062 2.898438 C 6.378906 2.898438 2.726562 6.550781 2.726562 11.085938 C 2.726562 15.621094 6.378906 19.273438 10.914062 19.273438 C 12.683594 19.273438 14.320312 18.714844 15.65625 17.769531 L 14.945312 17.058594 C 14.523438 16.648438 14.441406 16.046875 14.632812 15.574219 C 14.824219 15.101562 15.304688 14.726562 15.894531 14.726562 C 16.261719 14.726562 16.613281 14.875 16.867188 15.136719 L 17.582031 15.851562 C 18.539062 14.507812 19.101562 12.867188 19.101562 11.085938 C 19.101562 6.550781 15.449219 2.898438 10.914062 2.898438 Z M 13.179688 7.898438 C 13.425781 7.898438 13.660156 7.996094 13.828125 8.171875 L 16.101562 10.445312 C 16.457031 10.800781 16.457031 11.375 16.101562 11.726562 L 13.828125 14 C 13.601562 14.234375 13.265625 14.328125 12.949219 14.242188 C 12.632812 14.160156 12.386719 13.914062 12.304688 13.601562 C 12.222656 13.285156 12.316406 12.949219 12.546875 12.71875 L 13.28125 11.988281 C 13.25 11.992188 13.21875 11.992188 13.191406 11.992188 L 8.550781 11.992188 L 9.28125 12.71875 C 9.515625 12.949219 9.609375 13.285156 9.523438 13.601562 C 9.441406 13.914062 9.195312 14.160156 8.878906 14.242188 C 8.566406 14.328125 8.226562 14.234375 8 14 L 5.726562 11.726562 C 5.371094 11.375 5.371094 10.800781 5.726562 10.445312 L 8 8.171875 C 8.164062 8.003906 8.386719 7.90625 8.625 7.898438 C 8.996094 7.886719 9.339844 8.105469 9.484375 8.449219 C 9.628906 8.792969 9.550781 9.195312 9.28125 9.453125 L 8.550781 10.183594 L 13.191406 10.183594 C 13.21875 10.183594 13.25 10.183594 13.28125 10.183594 L 12.546875 9.453125 C 12.285156 9.195312 12.203125 8.804688 12.339844 8.464844 C 12.480469 8.121094 12.8125 7.898438 13.179688 7.898438 Z M 14.101562 11.007812 C 14.109375 11.0625 14.109375 11.113281 14.105469 11.167969 L 14.183594 11.085938 Z M 15.894531 15.632812 C 15.671875 15.636719 15.542969 15.75 15.476562 15.917969 C 15.410156 16.078125 15.421875 16.253906 15.578125 16.410156 C 15.582031 16.410156 15.582031 16.414062 15.585938 16.414062 L 16.371094 17.199219 C 16.59375 17 16.808594 16.785156 17.011719 16.5625 L 16.222656 15.773438 C 16.21875 15.773438 16.21875 15.773438 16.21875 15.769531 C 16.132812 15.683594 16.015625 15.632812 15.894531 15.632812 Z M 15.894531 15.632812 "/>
<path style=" stroke:none;fill-rule:nonzero;fill:rgb(93.333334%,93.333334%,93.333334%);fill-opacity:1;" d="M 15.894531 15.179688 C 15.527344 15.179688 15.191406 15.402344 15.054688 15.746094 C 14.917969 16.085938 15 16.476562 15.261719 16.734375 L 18.476562 19.949219 C 18.707031 20.183594 19.042969 20.277344 19.359375 20.195312 C 19.675781 20.113281 19.921875 19.867188 20.003906 19.550781 C 20.089844 19.234375 19.996094 18.898438 19.761719 18.671875 L 16.542969 15.453125 C 16.371094 15.277344 16.136719 15.179688 15.894531 15.179688 Z M 15.894531 15.179688 "/>
<path style=" stroke:none;fill-rule:nonzero;fill:rgb(93.333334%,93.333334%,93.333334%);fill-opacity:1;" d="M 19.101562 15.179688 C 18.867188 15.1875 18.644531 15.285156 18.476562 15.453125 L 15.261719 18.671875 C 15.027344 18.898438 14.933594 19.234375 15.015625 19.550781 C 15.101562 19.867188 15.347656 20.113281 15.664062 20.195312 C 15.980469 20.28125 16.316406 20.1875 16.542969 19.949219 L 19.761719 16.734375 C 20.027344 16.472656 20.109375 16.074219 19.960938 15.730469 C 19.816406 15.386719 19.472656 15.167969 19.101562 15.179688 Z M 19.101562 15.179688 "/>
</g>
</svg>

<svg xmlns="http://www.w3.org/2000/svg" width="22pt" height="22pt" viewBox="0 0 22 22"><g fill="#bdbdbd"><path d="M10.914 2.902a8.164 8.164 0 0 0-8.184 8.184 8.167 8.167 0 0 0 8.184 8.187c1.77 0 3.406-.554 4.742-1.503l-.71-.711a1.365 1.365 0 0 1-.313-1.485 1.367 1.367 0 0 1 2.238-.437l.711.715a8.167 8.167 0 0 0 1.52-4.766 8.167 8.167 0 0 0-8.188-8.184zm2.266 4.996c.246 0 .48.098.648.274l2.274 2.273a.903.903 0 0 1 0 1.282L13.828 14a.906.906 0 0 1-.879.246.91.91 0 0 1-.644-.644.906.906 0 0 1 .246-.88l.73-.734c-.031.004-.062.004-.094.004H8.556l.726.73a.895.895 0 0 1 .242.88.91.91 0 0 1-.644.644A.91.91 0 0 1 8 14l-2.273-2.273a.91.91 0 0 1 0-1.282L8 8.172a.912.912 0 0 1 .625-.274.903.903 0 0 1 .86.551.908.908 0 0 1-.204 1.004l-.726.73h4.633a.377.377 0 0 1 .093.005l-.73-.735a.906.906 0 0 1 .629-1.555zm.922 3.11c.007.05.007.105.003.156l.079-.078zm1.793 4.625a.42.42 0 0 0-.418.281.425.425 0 0 0 .105.496l.004.004.785.785c.227-.199.438-.414.64-.637l-.788-.785c-.004-.004-.004-.004-.004-.007a.462.462 0 0 0-.324-.137zm0 0"/><path d="M15.895 15.18a.908.908 0 0 0-.633 1.554l3.218 3.215a.906.906 0 0 0 .88.246.898.898 0 0 0 .644-.644.906.906 0 0 0-.246-.88l-3.215-3.218a.908.908 0 0 0-.648-.273zm0 0"/><path d="M19.102 15.18a.91.91 0 0 0-.622.273l-3.218 3.219a.903.903 0 0 0 .402 1.523.897.897 0 0 0 .879-.246l3.215-3.215a.9.9 0 0 0 .203-1.004.9.9 0 0 0-.86-.55zm0 0"/></g></svg>
